X:419
T:Lament of Flora MacDonald
C:Niel Gow Jr.
R:Air
M:6/8
Q:1/8=92
K:A
U:N = !tenuto!
!mp!uE|\
({/G}A>GA) (FGA)| (Bdc/B/) ((AG)NE)| {Ad}(c>BA) (E<dc)| {/d}(c/B/)(NANG) A2:|
!mf!uE|\
({/G}A>Bc/d/) (ecA)| (NE(Ec)) (dBG)| (Ac)e !turn!e>dc| B>cd (dc)B|
e>fe (dc)B| {/B}e>cA (GF)E| (A>GF) (Edc)| (c/B/A)G A>(Bc/d/)|
Pe>fe (dcB)| {/B}e>cA (GF)E| {/G}!diminuendo(!A>GF (ENd)c| {/d}!diminuendo)!(c/B/)(NANG) A2|]
